qml/icons/fallback/view-list-icons.svg

<svg xmlns="http://www.w3.org/2000/svg" viewBox="0 0 24 24"><path style="fill:currentColor;fill-opacity:1;stroke:none;color:#4d4d4d" d="M4 4v7h7V4H4zm9 0v7h7V4h-7zM5 5h5v5H5V5zm-1 8v7h7v-7H4zm9 0v7h7v-7h-7zm1 1h5v5h-5v-5z"/></svg>

<svg xmlns="http://www.w3.org/2000/svg" viewBox="0 0 24 24">
  <defs id="defs3051">
    <style type="text/css" id="current-color-scheme">
      .ColorScheme-Text {
        color:#4d4d4d;
      }
      </style>
  </defs>
 <path style="fill:currentColor;fill-opacity:1;stroke:none" 
     d="M 4 4 L 4 11 L 11 11 L 11 4 L 4 4 z M 13 4 L 13 11 L 20 11 L 20 4 L 13 4 z M 5 5 L 10 5 L 10 10 L 5 10 L 5 5 z M 4 13 L 4 20 L 11 20 L 11 13 L 4 13 z M 13 13 L 13 20 L 20 20 L 20 13 L 13 13 z M 14 14 L 19 14 L 19 19 L 14 19 L 14 14 z "
     class="ColorScheme-Text"
     />
</svg>
